circle-multiple-outline.svg

<svg fill="currentColor" viewBox="0 0 24 24"><path d="M15 4a8 8 0 0 1 8 8 8 8 0 0 1-8 8 8 8 0 0 1-8-8 8 8 0 0 1 8-8m0 14a6 6 0 0 0 6-6 6 6 0 0 0-6-6 6 6 0 0 0-6 6 6 6 0 0 0 6 6M3 12a5.99 5.99 0 0 0 4 5.65v2.09c-3.45-.89-6-4.01-6-7.74s2.55-6.85 6-7.74v2.09C4.67 7.17 3 9.39 3 12"/></svg>

<svg  viewBox="0 0 24 24" fill="currentColor"><path  d="M15,4A8,8 0 0,1 23,12A8,8 0 0,1 15,20A8,8 0 0,1 7,12A8,8 0 0,1 15,4M15,18A6,6 0 0,0 21,12A6,6 0 0,0 15,6A6,6 0 0,0 9,12A6,6 0 0,0 15,18M3,12C3,14.61 4.67,16.83 7,17.65V19.74C3.55,18.85 1,15.73 1,12C1,8.27 3.55,5.15 7,4.26V6.35C4.67,7.17 3,9.39 3,12Z"/></svg>
